X:136
T:New Edinburgh
O:No 136 William Clarke of Feltwell
M:4/4
L:1/8
N:Last note in bar B4 could be G
K:G
D|G>AGe dGeG|FDDG (F/G/A/F/) DF|G>AGe dGBd|eg (b/a/g/f/)g2g::d|gdbd c'dbd|dg c'/b/a/g/ fa a(b/a/)|gdbd c'dbd|dg b/a/g/f/g2g(b/a/)|gdbd c'dbd|dg c'/b/a/g/ fa a(g/f/)|eceg dBdg|dg b/a/g/f/g2g|]

